X: 1
T:Amsun (M. Martinotti) _ Mazurca
C:La Ciapa Rusa: Retanavota 9c
M:3/4
L:1/8
K:G
d2|g2f2~e2|d3B cd|e2~d2c2|~B4d2|Bd Gd Bd|1 {f}d2c2c2|\
Ac FA Bc|e2d2d2:|2 d2 cA Bc|d2 dc B/c/B/A/|G2G2z2||
|:ec Ag fe|dB Gd cB|cA Fc BA|BA Bc d2|\
ec Ag fe|dB Gd cB|cA Fc BA|1 G2 (3GBd (3cBd:|2 G2G2z2||
